bankofchina.svg

<svg viewBox="0 0 24 24" xmlns="http://www.w3.org/2000/svg"><path d="M12.0002 0.000368767C5.3722 0.000368767 0 5.37183 0 11.9998C0 18.6274 5.3722 23.9996 12.0002 23.9996C18.6274 23.9996 24 18.6274 24 11.9998C24 5.37183 18.6274 0.000368767 12.0002 0.000368767ZM2.5802 11.9998C2.5802 7.27811 6.05387 3.37238 10.5846 2.69016L10.5846 7.09732L8.62227 7.10414C7.14694 7.10414 6.25201 8.18725 6.25201 9.66129L6.25201 14.2804C6.25201 15.7552 7.46094 16.8927 8.93534 16.8927L10.5771 16.8933L10.5846 21.3174C6.05387 20.6339 2.5802 16.7206 2.5802 11.9998ZM9.10303 14.3094C9.10303 14.3094 8.97187 14.2959 8.90656 14.1821C8.84254 14.0703 8.85988 14.0111 8.85988 14.0111L8.85988 10.0039C8.85988 10.0039 8.85343 9.86201 8.93109 9.77585C9.00415 9.69412 9.13956 9.69062 9.13956 9.69062L14.8044 9.69062C14.8044 9.69062 14.8948 9.67807 14.9992 9.73526C15.0886 9.78323 15.1392 9.97214 15.1392 9.97214L15.1392 14.0843C15.1392 14.0843 15.0886 14.1985 15.0407 14.2384C14.9947 14.2775 14.9019 14.3081 14.9019 14.3081L13.4028 14.3109L9.10303 14.3094ZM13.3785 21.3252L13.3698 16.8623L15.1375 16.8623C16.6129 16.8623 17.6962 15.7552 17.6962 14.2806L17.6962 9.66147C17.6962 8.18744 16.5208 7.11097 15.0464 7.11097L13.3698 7.11263L13.3691 2.67909C17.9231 3.34231 21.4194 7.26261 21.4194 12C21.4194 16.7355 17.9303 20.6616 13.3785 21.3252Z" fill="#b30738"/></svg>

<svg viewBox="0 0 24 24" xmlns="http://www.w3.org/2000/svg"><path d="M12 0C5.372 0 0 5.372 0 12c0 6.627 5.372 12 12 12 6.627 0 12-5.373 12-12 0-6.628-5.373-12-12-12ZM2.58 12c0-4.722 3.474-8.628 8.005-9.31v4.407l-1.963.007c-1.475 0-2.37 1.083-2.37 2.557v4.62c0 1.474 1.209 2.612 2.683 2.612h1.642l.008 4.424C6.054 20.634 2.58 16.721 2.58 12Zm6.523 2.31s-.131-.014-.196-.128c-.064-.112-.047-.17-.047-.17v-4.008s-.007-.142.071-.228c.073-.082.209-.085.209-.085h5.664s.09-.013.195.044c.09.048.14.237.14.237v4.112s-.05.114-.098.154c-.046.04-.14.07-.14.07l-1.498.003-4.3-.002Zm4.276 7.015-.01-4.463h1.768c1.476 0 2.56-1.107 2.56-2.581V9.66c0-1.474-1.176-2.55-2.65-2.55l-1.677.002V2.679c4.553.663 8.05 4.584 8.05 9.321a9.421 9.421 0 0 1-8.042 9.325Z" fill="#b30738"/></svg>
